build/images/icons/meets.svg

<svg width="32" height="32" viewBox="0 0 32 32" fill="none" xmlns="http://www.w3.org/2000/svg">
<path d="M18.6663 2.66602H7.99967C6.53301 2.66602 5.33301 3.86602 5.33301 5.33268V26.666C5.33301 28.1327 6.53301 29.3327 7.99967 29.3327H23.9997C25.4663 29.3327 26.6663 28.1327 26.6663 26.666V10.666L18.6663 2.66602ZM15.9997 13.3327C17.4663 13.3327 18.6663 14.5327 18.6663 15.9993C18.6663 17.466 17.4663 18.666 15.9997 18.666C14.533 18.666 13.333 17.466 13.333 15.9993C13.333 14.5327 14.533 13.3327 15.9997 13.3327ZM21.333 23.9993H10.6663V23.2393C10.6663 22.1593 11.3063 21.1993 12.293 20.7727C13.4263 20.2793 14.6797 19.9993 15.9997 19.9993C17.3197 19.9993 18.573 20.2793 19.7063 20.7727C20.693 21.1993 21.333 22.1593 21.333 23.2393V23.9993Z"/>
</svg>

<svg width="32" height="32" fill="none" xmlns="http://www.w3.org/2000/svg"><path d="M18.666 2.666H8a2.675 2.675 0 00-2.667 2.667v21.333c0 1.467 1.2 2.667 2.667 2.667h16c1.466 0 2.666-1.2 2.666-2.667v-16l-8-8zM16 13.333c1.466 0 2.666 1.2 2.666 2.666 0 1.467-1.2 2.667-2.666 2.667a2.675 2.675 0 01-2.667-2.667c0-1.466 1.2-2.666 2.667-2.666zm5.333 10.666H10.666v-.76c0-1.08.64-2.04 1.627-2.466a9.266 9.266 0 017.413 0 2.68 2.68 0 011.627 2.466V24z"/></svg>
